X: 601
T: Dönmem Kucağına Aşkın
C: Avni Anıl
O: Turkey
F: http://compmusic.upf.edu/node/140
N: saba--sarki--duyek--donmem_kucagina--avni_anil
N: makam= saba
N: form= sarki
N: usul= duyek = 8/4
M: 8/4
L: 1/16
K: C _2/4B _3/4d  
Q: 1/4=132
%%MIDI tuningsystem comma53
B2 c6 z4 z4  | c2 d2 e2 f2 e2 d2 c4  | \
w:  Dön mem   |  ku ca ğı na   | 
z2 f6 _7/8a2 gf g2 fe  | f2 ed e2 dc d2 cB c4  | 
w:  aş kın   |   | 
e2 e6 e2 f2 d2 c2  | z2 d4 c2 B2 c2 e2 dc  | c16  | \
w:  da ha   |  dün  *  gel  |  dim    | 
G2 c4 z2 G2 G2 c4  | 
w:  SAZ  | 
z2 g6 g8  | z2 _7/8a2 g2 f2 z2 g2 f2 e2  | \
w:   |   | 
z2 c4 d2 cB BA A4  | B2 c6 z4 z4  | 
w:   |  Dön mem   | 
c2 d2 e2 f2 e2 d2 c4  | z2 f6 _7/8a2 gf g2 fe  | \
w:  ku ca ğı na   |  aş kın   | 
f2 ed e2 dc d2 cB c4  | 
w:   | 
e2 e6 e2 f2 d2 c2  | z2 d4 c2 B2 c2 e2 dc  | c16  | \
w:  da ha   |  dün  *  gel  |  dim    | 
G2 c4 z2 G2 G2 c4  | 
w:  SAZ  | 
z2 g6 g8  | z2 _7/8a2 g2 f2 z2 g2 f2 e2  | \
w:   |   | 
c3/2B/ cd ef g_7/8a g3/2f/ ed c4  | 
w:   | 
e2 f6 f4 f4  | e2 g4 f2 e2 e4 d2  | z2 d4 e2 f2 {f}e2 {e}d2 {d}c2  | \
w:  Gi der ken   |   |  neş' e li   | 
e2 d2 d2 ef ed cB c2 e2  | 
w:   | 
e2 e6 e4 d2 c2  | z2 d2 c2 B4 c2 B2 A2  | \
w:  dö ner ken   |  üz  | 
AB c4 BA A8  | G2 c4 z2 G2 G2 c4  | 
w:  gel *  *  *  *  dim    |  SAZ  | 
z2 g6 g8  | z2 _7/8a2 g2 f2 z2 g2 f2 e2  | \
w:   |   | 
c3/2B/ cd ef g_7/8a gf ed c4  | 
w:   | 
e2 f6 f4 f4  | e2 g4 f2 e2 e4 d2  | z2 d4 e2 f2 {f}e2 {e}d2 {d}c2  | \
w:  Gi der ken   |   |  neş' e li   | 
e2 d2 d2 ef ed cB c2 e2  | 
w:   | 
e2 e6 e4 d2 c2  | z2 d2 c2 B4 c2 B2 A2  | \
w:  dö ner ken   |  üz  | 
AB c4 BA A8  | G2 c4 z2 G2 G2 c4  | 
w:  gel *  *  *  *  dim    |  SAZ  | 
z2 g6 g8  | z2 _7/8a2 g2 f2 z2 g2 f2 e2  | \
w:   |   | 
c3/2B/ cd ef g_7/8a gf ef g4  | 
w:   | 
z2 g4 g2 g8  | g2 b4 _7/8ag a2 gf e4  | \
w:  Her  ge ce   |   | 
z2 d4 e2 c4 z4  | z2 f6 f8  | e2 g4 fe f2 ed c2 e2  | 
w:  bur da yım   |  şim di   |   | 
z2 e4 d2 e3f ed cB  | c16  | G2 c6 G2 G2 c4  | \
w:  büs bü tün  *  gel  |  dim    |  SAZ  | 
z2 g6 g8  | z2 _7/8a2 g2 f2 z2 g2 f2 e2  | 
w:   |   | 
c3/2B/ cd ef g_7/8a gf ed c4  | e2 f6 f4 f4  | \
w:   |  Gi der ken   | 
e2 g4 f2 e2 e4 d2  | 
w:   | 
z2 d4 e2 f2 {f}e2 {e}d2 {d}c2  | e2 d2 d2 ef ed cB c2 e2  | \
w:  neş' e li   |   | 
e2 e6 e4 d2 c2  | 
w:  dö ner ken   | 
z2 d2 c2 B4 c2 B2 A2  | AB c4 BA A8  | |


